X:1
T:Pokłon Jezusowi
T:Pokłon Jezusowi
T:Jan Maklakiewicz
T:nr. 14
T:Maciej Łuczka Hosanna Nysa
C:Jan Maklakiewicz
Z:Maciej Łuczka Hosanna Nysa
%%score [ ( 1 2 ) ( 3 4 ) ]
L:1/8
M:2/4
K:A
V:1 treble nm="S\nA"
V:2 treble 
V:3 bass nm="T\nB"
V:4 bass 
V:1
 z4 | z4 | z4 | z4 | e2 f2 | e2 A2 | cc B2 | A2 z2 | e2 f2 | e2 A2 | cc B2 | A2 z2 |: cc BA | %13
w: ||||1. W szo- pie,|w szo- pie|we żłó- becz-|ku|Le- ży|Je- zus|na- sia- necz-|ku|Czu- wa Ma- ria|
w: ||||2. Z pa- stu-|szka- mi|tu bie- gnie-|my|Ser- ca|na sze|po- da- je-|my|Po- kój zie- mi|
 ce dB | cc BA | cf ed | cd ee | (c2 B2) | A4!fine! :| cc cc | c2 ^d2 | e4 | !breath!c4 | e2 f2 | %24
w: nad Dzie- cią- tkiem|A pas- tu- szek|wraz z ja- gnią- tkiem|do Je- zu- sa|bie- *|ży.||||||
w: On to spra- wił|Bo- ską rą- czką|bło- go- sła- wił|ca- łe- mu kra-|jo- *|wi.||||||
 (g2 f2) | ^d4- | d4 | cc cc | c2 ^d2 | e4 | !breath!c4 | e2 f2 | g4 | e4- | e2 z2!D.C.! |] %35
w: |||||||||||
w: |||||||||||
V:2
 x4 | x4 | x4 | x4 | A2 A2 | G2 F2 | AA G2 | E2 z2 | A2 A2 | G2 F2 | AA G2 | E2 z2 |: EE FF | %13
w: |||||||||||||
 EE FF | EE FF | EA FG | AF EE | (F2 D2) | C4 :| cc BB | A2 A2 | G4 | E4 | G2 B2 | (B2 A2) | G4- | %26
w: ||||||Kła- niam Ci- się|Chry- ste|Je-|zu|naj- mi-|lej- *|szy|
 G4 | cc CE | F2 A2 | G4 | E4 | G2 B2 | B4 | G4- | G2 z2 |] %35
w: _|Kła- niam Ci się|Chry- ste|Je-|zu|naj- ślicz-|niej-|szy|_|
V:3
 z4 | z4 | z4 | z4 | C2 C2 | E2 D2 | DD D2 | C2 z2 | C2 C2 | E2 D2 | DD D2 | C2 z2 |: CC DD | %13
w: ||||1. W szo- pie,|w szo- pie|we żłó- becz-|ku|Le- ży|Je- zus|na- sia- necz-|ku||
w: ||||2. Z pa- stu-|szka- mi|tu bie- gnie-|my|Ser- ca|na sze|po- da- je-|my||
 CC DD | CC DD | CC DB, |!f! A,A, A,A, | (A,2 G,2) | !breath!A,4 :| CC CC | C2 ^D2 | E4 | %22
w: |||do Je- zu- sa|bie- *|ży.||||
w: |||ca- łe- mu kra-|jo- *|wi.||||
 !breath!C4 | E2 F2 | (G2 F2) | ^D4- | D4 | CC CC | C2 C2 | C4 | !breath!G,4 | C2 ^D2 | E4 | B,4- | %34
w: ||||||||||||
w: ||||||||||||
 B,2 z2 |] %35
w: |
w: |
V:4
 x4 | x4 | x4 | x4 | A,2 F,2 | C,2 D,2 | B,,B,, E,2 | [A,,E,]2 z2 | A,2 A,2 | C,2 D,2 | %10
w: ||||||||||
w: ||||||||||
 B,,B,, E,2 | [A,,E,]2 z2 |: [A,,E,]4 | [A,,E,]4 | [A,,E,]4 | [A,,E,]4 | A,,B,, C,C, | (D,2 E,2) | %18
w: ||a|pa-|stu-|szek|||
w: ||bło-|go-|sła-|wił|||
 [A,,E,]4 :| A,A, G,G, | F,2 F,2 | C,4 | C,4 | C2 B,2 | (E,2 F,2 | G,4) | [G,,^D,]4 | CC B,B, | %28
w: |Kła- niam Ci- się|Chry- ste|Je-|zu|naj- mi-|lej- *||szy|Kła- niam Ci się|
w: ||||||||||
 A,2 F,2 | C,4 | C,4 | C2 B,2 | E,4 | E,4- | E,2 z2 |] %35
w: Chry- ste|Je-|zu|naj- ślicz-|niej-|szy|_|
w: |||||||

